resources/svg/css3.svg

<svg xmlns="http://www.w3.org/2000/svg" viewBox="0 0 15 15" fill="currentColor"><path fill-rule="evenodd" clip-rule="evenodd" d="M0.131962 0.161552C0.226644 0.0585921 0.360125 0 0.500002 0H14.5C14.6399 0 14.7734 0.0585921 14.868 0.161552C14.9627 0.264513 15.0099 0.402426 14.9983 0.541813L13.9983 12.458C13.9815 12.6572 13.8478 12.8273 13.6581 12.8905L7.65812 14.8905C7.55548 14.9247 7.44452 14.9247 7.34189 14.8905L1.34189 12.8905C1.15224 12.8273 1.01847 12.6572 1.00175 12.458L0.00175302 0.541813C-0.0099443 0.402426 0.0372801 0.264513 0.131962 0.161552ZM11 3H4V4H10V6H6V7H10V9.13962L7.5 9.97295L5 9.13962V8H4V9.86038L7.5 11.027L11 9.86038V3Z" fill="black"/></svg>

<svg xmlns="http://www.w3.org/2000/svg" viewBox="0 0 15 15" fill="currentColor"><path fill-rule="evenodd" clip-rule="evenodd" d="M.132.162A.5.5 0 01.5 0h14a.5.5 0 01.498.542l-1 11.916a.5.5 0 01-.34.432l-6 2a.5.5 0 01-.316 0l-6-2a.5.5 0 01-.34-.432L.002.542a.5.5 0 01.13-.38zM11 3H4v1h6v2H6v1h4v2.14l-2.5.833L5 9.14V8H4v1.86l3.5 1.167L11 9.86V3z" fill="currentColor"/></svg>
